assets/emojis/SmilingFacewithHeartEyes.svg

<svg width="126" height="126" viewBox="0 0 126 126" fill="none" xmlns="http://www.w3.org/2000/svg">
<circle cx="62.8965" cy="62.77" r="62.3496" fill="#F9B42F"/>
<path opacity="0.3" fill-rule="evenodd" clip-rule="evenodd" d="M113.832 98.9413C102.511 110.533 86.7084 117.728 69.2255 117.728C34.7908 117.728 6.87591 89.8133 6.87591 55.3786C6.87591 41.9829 11.1004 29.5739 18.2897 19.4111C7.31201 30.6503 0.546875 46.022 0.546875 62.9739C0.546875 97.4086 28.4617 125.324 62.8965 125.324C83.9355 125.324 102.541 114.903 113.832 98.9413Z" fill="#BC8417"/>
<path d="M79.5408 75.3418H46.3928C43.7208 75.3418 42.7503 78.4941 44.6409 80.4057C48.7875 84.5581 54.3962 89.2676 62.9542 89.2676C71.5122 89.2676 77.1209 84.5202 81.2675 80.4057C83.1833 78.4941 82.2128 75.3418 79.5408 75.3418Z" fill="#2C2A46"/>
<path d="M102.109 29.2545C91.6378 9.30677 72.2685 23.4556 75.6648 38.3756C78.3344 50.0921 91.1929 66.7177 91.1929 66.7177C93.0468 66.0652 110.978 59.5988 119.52 51.1451C130.391 40.3481 121.671 18.1016 102.109 29.2545Z" fill="#CF5358"/>
<path d="M23.6081 29.2545C34.0937 9.30677 53.463 23.4556 50.0667 38.3756C47.3823 50.0921 34.5237 66.7177 34.5237 66.7177C32.6699 66.0652 14.754 59.5988 6.19648 51.1451C-4.71917 40.3481 4.0163 18.1016 23.6081 29.2545Z" fill="#CF5358"/>
</svg>

<svg xmlns="http://www.w3.org/2000/svg" width="126" height="126" fill="none" viewBox="0 0 126 126"><circle cx="62.897" cy="62.77" r="62.35" fill="#f9b42f"/><path fill="#bc8417" fill-rule="evenodd" d="M113.832 98.941c-11.321 11.592-27.124 18.787-44.606 18.787-34.435 0-62.35-27.915-62.35-62.35 0-13.395 4.224-25.804 11.414-35.967C7.312 30.651.547 46.022.547 62.974c0 34.435 27.915 62.35 62.35 62.35 21.039 0 39.644-10.421 50.935-26.383" clip-rule="evenodd" opacity=".3"/><path fill="#2c2a46" d="M79.54 75.342H46.394c-2.672 0-3.643 3.152-1.752 5.064 4.147 4.152 9.755 8.862 18.313 8.862s14.167-4.748 18.313-8.862c1.916-1.912.946-5.064-1.726-5.064"/><path fill="#cf5358" d="M102.109 29.255c-10.471-19.948-29.84-5.8-26.444 9.12 2.67 11.717 15.528 28.343 15.528 28.343 1.854-.653 19.785-7.12 28.327-15.573 10.871-10.797 2.151-33.043-17.411-21.89m-78.501 0c10.486-19.948 29.855-5.8 26.459 9.12-2.685 11.717-15.543 28.343-15.543 28.343-1.854-.653-19.77-7.12-28.328-15.573-10.915-10.797-2.18-33.043 17.412-21.89"/></svg>
